images/d-left-eye-hover-m.svg

<svg fill="none" height="28" viewBox="0 0 28 28" width="28" xmlns="http://www.w3.org/2000/svg"><path clip-rule="evenodd" d="m18.4016 3.97796v-3.484551l-7.9647-.000001v3.484552h-4.97789v5.97351h-4.480128v7.96463h4.480128v5.9736h4.97789v3.4845h7.9647v-3.4845h4.9779v-5.9736h4.4802v-7.96463h-4.4802v-5.97351z" fill="#ff512f" fill-rule="evenodd"/></svg>

<svg width="28" height="28" viewBox="0 0 28 28" fill="none" xmlns="http://www.w3.org/2000/svg">
<path fill-rule="evenodd" clip-rule="evenodd" d="M18.4016 3.97796V0.493409L10.4369 0.493408V3.97796H5.45901V9.95147H0.978882V17.9161H5.45901V23.8897H10.4369V27.3742H18.4016V23.8897H23.3795V17.9161H27.8597V9.95147H23.3795V3.97796H18.4016Z" fill="#FF512F"/>
</svg>
